X: 577
T: For The Sake Of Old Decency
B: jims roots
M:4/4
L:1/8
R: reel
Q: 1/4=100
K:Gmaj
V:1 
"G"d2 BG AE E2 | "C"AcBG A2 GB | "G"d2 BG AE E2 | "C"DGB,D "G"EGGB :|
"G"G2 GB d2 Bd | "C"ea a2 ea a2 | "G"G2 GB d2 Bd | "C"ea a2 "G"bgag |
"G"G2 GB d2 Bd | "C"ea a2 eaag | "G"bage g2 ed | "C"egag "G"bgag |]
% abcbook-tune_id 6298c25df0e385b64f29825e


% abcbook-boost 0
% abcbook-tablature 
% abcbook-transpose 
% abcbook-lastupdated 1654178398085
% abcbook-soundfonts 
% abcbook-repeats 1
% ceolachan
% <a href="http://thesession.org/tunes/2777#setting16001" rel="nofollow">http://thesession.org/tunes/2777#setting16001</a>

